X:1
T:Dumbarton's Drums
M:4/4
L:1/8
K:F
F-G| A3 cA-cA-G| F2 c2 c2 BA|G-F GAB-AG-F| D2 d2 d2|c-d| f2 fga-g fd|\
c-A cd f2 FA|G-A fdc-A GF| D2 d2 d2| cd| f2 fga-b ag| f2 a2 a2 gf|\
g-fg-ab-a gf| d2 g2 g2|f-d| cd fga-gf-d| cA cd f2 fg|a-g fdc-A GF|\
 D2 d2 d2||

